src/Resource_Files/material/git-checkout.svg

<svg clip-rule="evenodd" fill-rule="evenodd" stroke-linejoin="round" stroke-miterlimit="2" viewBox="0 0 24 24" xmlns="http://www.w3.org/2000/svg"><path d="m0 0h24v24h-24z" fill="none"/><g fill="#1abc9c"><path d="m4.218 7.5c1.559-2.686 4.46-4.5 7.782-4.5 4.963 0 9 4.037 9 9s-4.037 9-9 9-9-4.037-9-9h2c0 3.863 3.137 7 7 7s7-3.137 7-7-3.137-7-7-7c-2.15 0-4.076.972-5.36 2.5z"/><path d="m22 2v7h-7z" fill-rule="nonzero" transform="matrix(-.857143 0 0 .857143 21.8571 1.28571)"/></g></svg>

<?xml version="1.0" encoding="UTF-8" standalone="no"?>
<!DOCTYPE svg PUBLIC "-//W3C//DTD SVG 1.1//EN" "http://www.w3.org/Graphics/SVG/1.1/DTD/svg11.dtd">
<svg width="100%" height="100%" viewBox="0 0 24 24" version="1.1" xmlns="http://www.w3.org/2000/svg" xmlns:xlink="http://www.w3.org/1999/xlink" xml:space="preserve" xmlns:serif="http://www.serif.com/" style="fill-rule:evenodd;clip-rule:evenodd;stroke-linejoin:round;stroke-miterlimit:2;">
    <rect x="0" y="0" width="24" height="24" style="fill:none;"/>
    <g>
        <path d="M4.218,7.5C5.777,4.814 8.678,3 12,3C16.963,3 21,7.037 21,12C21,16.963 16.963,21 12,21C7.037,21 3,16.963 3,12L5,12C5,15.863 8.137,19 12,19C15.863,19 19,15.863 19,12C19,8.137 15.863,5 12,5C9.85,5 7.924,5.972 6.64,7.5L4.218,7.5Z" style="fill:rgb(26,188,156);"/>
    </g>
    <g transform="matrix(-0.857143,0,0,0.857143,21.8571,1.28571)">
        <path d="M22,2L22,9L15,9L22,2Z" style="fill:rgb(26,188,156);fill-rule:nonzero;"/>
    </g>
</svg>
